Papirus-GTK/24x24/apps/subsonic.svg

<svg height="24" viewBox="0 0 24 24" width="24" xmlns="http://www.w3.org/2000/svg" xmlns:xlink="http://www.w3.org/1999/xlink"><linearGradient id="a" gradientUnits="userSpaceOnUse" x1="2" x2="6" y1="1042.3622" y2="1042.3622"><stop offset="0" stop-opacity="0"/><stop offset="1"/></linearGradient><g transform="translate(0 -1028.3622)"><g transform="matrix(.33333333 0 0 .4 1.3333333 629.61733)"><rect fill="#41b941" height="10" rx="1.4059999" ry="1.7465838" width="3" x="14" y="1014.3622"/><path d="m15.40625 10c-.778924 0-1.40625.778486-1.40625 1.746094v1c0-.967608.627326-1.746094 1.40625-1.746094h.1875c.778924 0 1.40625.778486 1.40625 1.746094v-1c0-.967608-.627326-1.746094-1.40625-1.746094z" fill="#fff" opacity=".2" transform="translate(0 1004.3622)"/></g><path d="m11 1034.3622c-.554 0-1 .446-1 1v1.042c-1.8554885.5929-3.5 1.958-4 2.958-.5-1-3-1-3-1v2h-1v4h1v2c-.019532 0 2.5-.5 3-1.5.5 1 3.5 2.5 7.5 2.5 4 0 8.5-2.1863 8.5-5.5-.0043-2.3549-1.959832-4.4903-5-5.4599v-1.0401c0-.554-.446-1-1-1z" fill="#ffca1d"/><path d="m11 6c-.554 0-1 .446-1 1v .5c0-.554.446-1 1-1h5c .554 0 1 .446 1 1v-.5c0-.554-.446-1-1-1zm6 2.0410156v.5c2.943876.9388898 4.853552 2.9723514 4.976562 5.2382814.007315-.093344.023438-.184066.023438-.279297-.0043-2.3549-1.959832-4.4893844-5-5.4589844zm-7 .00195c-1.8554885.5929032-3.5 1.9570344-4 2.9570344-.5-1-3-1-3-1v .5c0 0 2.5 0 3 1 .5-1 2.1445115-2.3641312 4-2.9570312z" fill="#fff" opacity=".2" transform="translate(0 1028.3622)"/><circle cx="13.5" cy="1042.3622" opacity=".2" r="1.5"/><circle cx="17.5" cy="1042.3622" opacity=".2" r="1.5"/><circle cx="9.5" cy="1042.3622" opacity=".2" r="1.5"/><circle cx="13.5" cy="1041.8622" fill="#fff" r="1.5"/><circle cx="17.5" cy="1041.8622" fill="#fff" r="1.5"/><circle cx="9.5" cy="1041.8622" fill="#fff" r="1.5"/><path d="m6 1039.3622c-.5-1-3-1-3-1v2h-1v4h1v2c-.019532 0 2.5-.5 3-1.5z" fill="url(#a)" opacity=".1"/><path d="m21.976562 13.279297c-.247204 3.154681-4.591517 5.220703-8.476562 5.220703-4 0-7-1.5-7.5-2.5-.5 1-3.019532 1.5-3 1.5v.5c-.019532 0 2.5-.5 3-1.5.5 1 3.5 2.5 7.5 2.5 4 0 8.5-2.1863 8.5-5.5-.000136-.07459-.01941-.146587-.02344-.220703z" opacity=".3" transform="translate(0 1028.3622)"/></g></svg>

<?xml version="1.0" encoding="UTF-8" standalone="no"?>
<!-- Created with Inkscape (http://www.inkscape.org/) -->

<svg
   xmlns:dc="http://purl.org/dc/elements/1.1/"
   xmlns:cc="http://creativecommons.org/ns#"
   xmlns:rdf="http://www.w3.org/1999/02/22-rdf-syntax-ns#"
   xmlns:svg="http://www.w3.org/2000/svg"
   xmlns="http://www.w3.org/2000/svg"
   xmlns:xlink="http://www.w3.org/1999/xlink"
   xmlns:sodipodi="http://sodipodi.sourceforge.net/DTD/sodipodi-0.dtd"
   xmlns:inkscape="http://www.inkscape.org/namespaces/inkscape"
   width="24"
   height="24"
   viewBox="0 0 24 24"
   id="svg5470"
   version="1.1"
   inkscape:version="0.91 r13725"
   sodipodi:docname="subsonic.svg">
  <defs
     id="defs5472">
    <linearGradient
       inkscape:collect="always"
       id="linearGradient6330">
      <stop
         id="stop6334"
         offset="0"
         style="stop-color:#000000;stop-opacity:0;" />
      <stop
         id="stop6332"
         offset="1"
         style="stop-color:#000000;stop-opacity:1;" />
    </linearGradient>
    <linearGradient
       inkscape:collect="always"
       xlink:href="#linearGradient6330"
       id="linearGradient6336"
       x1="2"
       y1="1042.3622"
       x2="6"
       y2="1042.3622"
       gradientUnits="userSpaceOnUse" />
  </defs>
  <sodipodi:namedview
     id="base"
     pagecolor="#ffffff"
     bordercolor="#666666"
     borderopacity="1.0"
     inkscape:pageopacity="0.0"
     inkscape:pageshadow="2"
     inkscape:zoom="1"
     inkscape:cx="9.3885889"
     inkscape:cy="8.9256901"
     inkscape:document-units="px"
     inkscape:current-layer="layer1"
     showgrid="false"
     units="px"
     inkscape:window-width="1600"
     inkscape:window-height="847"
     inkscape:window-x="0"
     inkscape:window-y="0"
     inkscape:window-maximized="1">
    <inkscape:grid
       type="xygrid"
       id="grid6095" />
  </sodipodi:namedview>
  <metadata
     id="metadata5475">
    <rdf:RDF>
      <cc:Work
         rdf:about="">
        <dc:format>image/svg+xml</dc:format>
        <dc:type
           rdf:resource="http://purl.org/dc/dcmitype/StillImage" />
        <dc:title></dc:title>
      </cc:Work>
    </rdf:RDF>
  </metadata>
  <g
     inkscape:label="Layer 1"
     inkscape:groupmode="layer"
     id="layer1"
     transform="translate(0,-1028.3622)">
    <g
       id="g6228"
       transform="matrix(0.33333333,0,0,0.4,1.3333333,629.61733)">
      <rect
         ry="1.7465838"
         rx="1.4059999"
         y="1014.3622"
         x="14"
         height="10"
         width="3"
         id="rect6068"
         style="opacity:1;fill:#41b941;fill-opacity:1;stroke:none;stroke-width:1;stroke-linecap:round;stroke-linejoin:round;stroke-miterlimit:4;stroke-dasharray:none;stroke-opacity:1" />
      <path
         id="rect6223"
         transform="translate(0,1004.3622)"
         d="M 15.40625,10 C 14.627326,10 14,10.778486 14,11.746094 l 0,1 C 14,11.778486 14.627326,11 15.40625,11 l 0.1875,0 C 16.372674,11 17,11.778486 17,12.746094 l 0,-1 C 17,10.778486 16.372674,10 15.59375,10 l -0.1875,0 z"
         style="opacity:0.2;fill:#ffffff;fill-opacity:1;stroke:none;stroke-width:1;stroke-linecap:round;stroke-linejoin:round;stroke-miterlimit:4;stroke-dasharray:none;stroke-opacity:1"
         inkscape:connector-curvature="0" />
    </g>
    <path
       style="opacity:1;fill:#ffca1d;fill-opacity:1;stroke:none;stroke-width:1;stroke-linecap:round;stroke-linejoin:round;stroke-miterlimit:4;stroke-dasharray:none;stroke-opacity:1"
       d="m 11,1034.3622 c -0.554,0 -1,0.446 -1,1 l 0,1.042 c -1.8554885,0.5929 -3.5,1.958 -4,2.958 -0.5,-1 -3,-1 -3,-1 l 0,2 -1,0 0,4 1,0 0,2 c -0.019532,0 2.5,-0.5 3,-1.5 0.5,1 3.5,2.5 7.5,2.5 4,0 8.5,-2.1863 8.5,-5.5 -0.0043,-2.3549 -1.959832,-4.4903 -5,-5.4599 l 0,-1.0401 c 0,-0.554 -0.446,-1 -1,-1 z"
       id="path5454"
       inkscape:connector-curvature="0"
       sodipodi:nodetypes="ssccccccccccccsss" />
    <path
       style="opacity:0.2;fill:#ffffff;fill-opacity:1;stroke:none;stroke-width:1;stroke-linecap:round;stroke-linejoin:round;stroke-miterlimit:4;stroke-dasharray:none;stroke-opacity:1"
       d="m 11,6 c -0.554,0 -1,0.446 -1,1 l 0,0.5 c 0,-0.554 0.446,-1 1,-1 l 5,0 c 0.554,0 1,0.446 1,1 L 17,7 C 17,6.446 16.554,6 16,6 Z m 6,2.0410156 0,0.5 c 2.943876,0.9388898 4.853552,2.9723514 4.976562,5.2382814 C 21.983877,13.685953 22,13.595231 22,13.5 21.9957,11.1451 20.040168,9.0106156 17,8.0410156 Z m -7,0.00195 C 8.1445115,8.6358688 6.5,10 6,11 5.5,10 3,10 3,10 l 0,0.5 c 0,0 2.5,0 3,1 0.5,-1 2.1445115,-2.3641312 4,-2.9570312 z"
       transform="translate(0,1028.3622)"
       id="path6340"
       inkscape:connector-curvature="0"
       sodipodi:nodetypes="sscsscssscccccccccccc" />
    <circle
       r="1.5"
       cy="1042.3622"
       cx="13.5"
       id="circle6084"
       style="opacity:0.2;fill:#000000;fill-opacity:1;stroke:none;stroke-width:1;stroke-linecap:round;stroke-linejoin:round;stroke-miterlimit:4;stroke-dasharray:none;stroke-opacity:1" />
    <circle
       style="opacity:0.2;fill:#000000;fill-opacity:1;stroke:none;stroke-width:1;stroke-linecap:round;stroke-linejoin:round;stroke-miterlimit:4;stroke-dasharray:none;stroke-opacity:1"
       id="circle6086"
       cx="17.5"
       cy="1042.3622"
       r="1.5" />
    <circle
       style="opacity:0.2;fill:#000000;fill-opacity:1;stroke:none;stroke-width:1;stroke-linecap:round;stroke-linejoin:round;stroke-miterlimit:4;stroke-dasharray:none;stroke-opacity:1"
       id="circle6088"
       cx="9.5"
       cy="1042.3622"
       r="1.5" />
    <circle
       style="opacity:1;fill:#ffffff;fill-opacity:1;stroke:none;stroke-width:1;stroke-linecap:round;stroke-linejoin:round;stroke-miterlimit:4;stroke-dasharray:none;stroke-opacity:1"
       id="path6070"
       cx="13.5"
       cy="1041.8622"
       r="1.5" />
    <circle
       r="1.5"
       cy="1041.8622"
       cx="17.5"
       id="circle6072"
       style="opacity:1;fill:#ffffff;fill-opacity:1;stroke:none;stroke-width:1;stroke-linecap:round;stroke-linejoin:round;stroke-miterlimit:4;stroke-dasharray:none;stroke-opacity:1" />
    <circle
       r="1.5"
       cy="1041.8622"
       cx="9.5"
       id="circle6074"
       style="opacity:1;fill:#ffffff;fill-opacity:1;stroke:none;stroke-width:1;stroke-linecap:round;stroke-linejoin:round;stroke-miterlimit:4;stroke-dasharray:none;stroke-opacity:1" />
    <path
       sodipodi:nodetypes="ccccccccc"
       inkscape:connector-curvature="0"
       id="path6328"
       d="m 6,1039.3622 c -0.5,-1 -3,-1 -3,-1 l 0,2 -1,0 0,4 1,0 0,2 c -0.019532,0 2.5,-0.5 3,-1.5 z"
       style="opacity:0.1;fill:url(#linearGradient6336);fill-opacity:1;stroke:none;stroke-width:1;stroke-linecap:round;stroke-linejoin:round;stroke-miterlimit:4;stroke-dasharray:none;stroke-opacity:1" />
    <path
       style="opacity:0.3;fill:#000000;fill-opacity:1;stroke:none;stroke-width:1;stroke-linecap:round;stroke-linejoin:round;stroke-miterlimit:4;stroke-dasharray:none;stroke-opacity:1"
       d="M 21.976562,13.279297 C 21.729358,16.433978 17.385045,18.5 13.5,18.5 9.5,18.5 6.5,17 6,16 5.5,17 2.980468,17.5 3,17.5 L 3,18 c -0.019532,0 2.5,-0.5 3,-1.5 0.5,1 3.5,2.5 7.5,2.5 4,0 8.5,-2.1863 8.5,-5.5 -1.36e-4,-0.07459 -0.01941,-0.146587 -0.02344,-0.220703 z"
       transform="translate(0,1028.3622)"
       id="path6345"
       inkscape:connector-curvature="0"
       sodipodi:nodetypes="csccccscc" />
  </g>
</svg>
